public/avatar/shoe/170.svg

<svg xmlns:xlink="http://www.w3.org/1999/xlink" height="38.3" width="36.05" xmlns="http://www.w3.org/2000/svg"><g transform="translate(23.8 14.85)"><use height="26.75" transform="translate(-14.55 -11.25)" width="24.4" xlink:href="#a"/><use height="5.2" transform="translate(-8 -9.2)" width="16.05" xlink:href="#b"/><use height="18.25" transform="translate(-13.45 -3.8)" width="21" xlink:href="#c"/><use height="17.1" transform="translate(-11.5 -2.75)" width="18.6" xlink:href="#d"/><use height="11" transform="translate(-12.8 -1.8)" width="20.35" xlink:href="#e"/><use height="14.4" transform="translate(-8.25 -2.8)" width="15.85" xlink:href="#f"/><use height="7.75" transform="translate(-7.7 -9.1)" width="15.75" xlink:href="#g"/><use height="8.1" transform="translate(-7.7 -9.45)" width="10.5" xlink:href="#h"/></g><defs><use height="26.75" width="24.4" xlink:href="#i" id="a"/><use height="5.2" width="16.05" xlink:href="#j" id="b"/><use height="18.25" width="21" xlink:href="#k" id="c"/><use height="17.1" width="18.6" xlink:href="#l" id="d"/><use height="11" width="20.35" xlink:href="#m" id="e"/><use height="14.4" width="15.85" xlink:href="#n" id="f"/><use height="7.75" width="15.75" xlink:href="#o" id="g"/><use height="8.1" width="10.5" xlink:href="#p" id="h"/><path d="m9.2-9.3 2.45-.25-.8 1.7q.85.25 1.35 2.2l-1.45-.25q-.25.05 0 .75L10.65.6q.75 1.45 0 5.8.55 2.2-.5 3.15-1.8 1.8-9.05 3.3-6.65 1.25-10-.4-3.2-1.55-2.65-3.5-1.6-4.8.75-7.25 1.75-1.75 2.95-2l2.6-1.05-.5-2.35-.05-1.5-1.75.3.45-1.2q.6-1.2 1.5-1.55L-8-8.95l1.35-.5 2.4-.2-.75-2.3 2.9 1.05.95-2.3 1.3 2.15L1-13.1l1.1 1.8 1.25-2.05.4 2.05 1.7-1.3.55 1.45 1.75-1.45v1.9l2.2-.6-.75 2" fill="#1a171b" fill-rule="evenodd" transform="translate(12.2 13.35)" id="i"/><path d="M.55-2.05q0 .45.4 1.05L2.5-2.55Q2.4-2 3.25-1L4.6-2.15V-1l1.5-.15L5.7.2l2.1-.25-1 1.3 1.25.45q-.65.2-.7.9L4.95.7Q4.55.35 3.8.7L2.05.1.2.45q-.55-.5-.95-.55Q-2.2-.3-3.3.4l-3.25 1.7-1.45.1L-6.05.9-7.5.1l2.35-.15q-.05-1.05-.25-1.6.95.4 1.7 1.55.4-1.45.4-2.5l1.25 1.95.9-1.85.9 1.25.8-.8" fill="#f88" fill-rule="evenodd" transform="translate(8 2.6)" id="j"/><path d="m2.65-2.75 1.5-2.05q.35-.2 1.05.75l.6 1 1-2.35q1.05.15 1.65 1.6l.35-2.25 1.15 1 .2.5v2.15l-.2 2.35v.3l.1.3q.3.5.2 2.3L10 5.6Q5.8 8.25-1.2 9.45q-4.45.75-7.35-.4l-1.65-1-.05-.05q-1.25-4.2.55-6.05Q-8.05.35-7.3.25l2.2.1q2.3.25 2.9.9.95 1 .45-.5Q-3.25-.3-6.45-.3-6-.7-5-.9l.2-.05.1.05 2.2.15Q-.2-.5.45.1q.9 1 .45-.5-1.45-1.05-4.35-1.05L-4.2-4l.3-2.45-.1 2.4 2.65-1.6L-.3-3Q.8-5.4 1.55-5.15q.4.2 1.1 2.4m7.4 9.15v.8l-.25 1q-1.3 1.15-8.3 2.85-6.05 1.55-9.6-.1-2.1-1-2.1-2.05 3.2 1.7 8 1.15Q3 9.5 10.05 6.4" fill="#c31200" fill-rule="evenodd" transform="translate(10.75 6.45)" id="k"/><path d="m6.95-8.3.2 4.65.35 5.5q0 1 .55 1.45-3.9 2-9.75 3-3.8.6-6.5-.1 4.45.1 5.65-.85l2.05-3.5Q3.25-.6 3.2-2.45 3.1-3.9.95-6.1l-2.05.9-.9-2.75-1.75.3.2-.15 1.85-.6.9 2.25Q.3-8.55 1.05-8.3q.4.2 1.1 2.4l1.5-2.05q.35-.2 1.05.75l.6 1 1-2.35.65.25M2.3 7.65q-5 1.25-8.4.8-2.8-.3-3.2-1.3l.1-.75q2.75.95 6.5.5 4.9-.55 11.4-3.3 1.6.7-.95 2.1-1.65.95-5.45 1.95" fill="#9b1200" fill-rule="evenodd" transform="translate(9.3 8.55)" id="l"/><path d="m7.5-6.85-1.35.7.1-.65.85-.4.4.35m-3.65 1 1.7-.6.25.4q-1.1.5-2.2.8l.25-.6m-.6.7L.3-4.6l.4-.55 2.25-.45.3.45M.2-4.6q-3.45.2-6.8-1.1l-.1-.15v-.2l.1-.1h.25l-.05.35.4-.25 3.1.8.2.5.2-.45 2.55.1.15.5m.35 7.5q.55 3-.35 4.2l-.15.1-.2-.05-.1-.15.05-.2Q.6 5.7.05 3-.55.15-4.2-1.3h.05l-3.6-.95-.15-.1-.05-.2.15-.15.2-.05 3.6.95v.05Q-.05-.15.55 2.9M.6-2.35h.1q4.65.7 6.75-2.2l.15-.1.2.05.1.15-.05.2Q6.05-1.7 2.55-1.7 3.8-1.05 4.3-.05q1.15 2.5.95 5.2l-.1.15-.15.05-.2-.1-.05-.15q.2-2.55-.9-4.95Q3.15-1.2.75-1.8l.1.05L.1-1.9l-2.35-.3q-.15 0-.2-.1l-.05-.15.1-.2.2-.05 2.45.3.35.05" fill="#560f0c" fill-rule="evenodd" transform="translate(7.95 7.2)" id="n"/><path d="M-6.85.3q2.05-.1 3.35.9 1.35.9.2 1.55Q-7.6 5.5-8.4 5.5q-.65-.05-1.35-1.15-.8-1.25-.25-2.1Q-8.85.45-6.85.3M10.1-5.5 9.85-.8q.6 1.4.05 5.35-.3-4.6-.75-5.2l.95-4.85" transform="translate(10.2 5.5)" id="m" fill="#ec311c" fill-rule="evenodd"/><g id="o" fill="#ffdcdc" fill-rule="evenodd"><path d="m7.65-1.3-.9 1.15L7.9.4l-.45.35q-.45.6-.35 1.4-.2-.65-1-.95L5.35.95 5.4 2.7q-.3-.55-1.15-.95l-.9-.05-.4 1.8L1.35 2-.1 3.85Q-.5 1.9-1.25 1.9l-1.8 1.7-.6-2.1q-.6-.25-1.85.45l-1.05.8.45-2.1L-7.85.6Q-6.3-1.1-4.3-1.1q.5.05.65.6L-1-1q.5.35.6 1.2l1.9-1q1-.1 2 .7l1.4-.65 2.75-.55" transform="translate(7.85 3.9)"/><path d="M.25-2.4q-1.15.4-1.4-.15-.25 1.3-.9 1.4l-1.6.65-3.5.95q1.35-.7 1-.95l-1.25-.8 2.1-.05-.5-1.9 2.05 1.65.25-2.3L-2.25-2l.95-1.8.9 1.25.8-1.1.3 1.15 1.55-1.3.85 1.5 1.25-1.25L3.5-1.6q-.25.55-1.5-.7-.8.9-1.4.95L.25-2.4" transform="translate(7.85 3.9)"/></g><g id="p" fill="#fffffe" fill-rule="evenodd"><path d="M.55-.95-.4-1.8q-.1.9-.5 1.1-.35.15-1.05-.6.4.7 0 .9l-.8.55 1.8.05q.45.4.8 1.25l-.3 2.35q-.5-2.2-.8-2.35L-3.8 2.8q.65-1.9.3-1.95l-1.75.2 1.7-1.35-1.25-.8 2.1-.05-.5-1.9 2.25 1.6.15-2.6L.35-1.8l.9-2Q1-.95.55-.95M1.8.85q.95-.05.7 3.2Q.95.95 1.8.85m2.3 0Q5.35.45 5.25 3.1 3.55 1.05 4.1.85" transform="translate(5.25 4.05)"/><path d="M-.45 3.6-.7 1.8Q-.3-.15.7.4q.55.4-1.15 3.2" transform="translate(5.25 4.05)"/></g></defs></svg>

<?xml version="1.0" encoding="UTF-8" standalone="no"?>
<svg xmlns:xlink="http://www.w3.org/1999/xlink" height="38.3px" width="36.05px" xmlns="http://www.w3.org/2000/svg">
  <g transform="matrix(1.0, 0.0, 0.0, 1.0, 23.8, 14.85)">
    <use height="26.75" transform="matrix(1.0, 0.0, 0.0, 1.0, -14.55, -11.25)" width="24.4" xlink:href="#sprite0"/>
    <use height="5.2" transform="matrix(1.0, 0.0, 0.0, 1.0, -8.0, -9.2)" width="16.05" xlink:href="#sprite1"/>
    <use height="18.25" transform="matrix(1.0, 0.0, 0.0, 1.0, -13.45, -3.8)" width="21.0" xlink:href="#sprite2"/>
    <use height="17.1" transform="matrix(1.0, 0.0, 0.0, 1.0, -11.5, -2.75)" width="18.6" xlink:href="#sprite3"/>
    <use height="11.0" transform="matrix(1.0, 0.0, 0.0, 1.0, -12.8, -1.8)" width="20.35" xlink:href="#sprite4"/>
    <use height="14.4" transform="matrix(1.0, 0.0, 0.0, 1.0, -8.25, -2.8)" width="15.85" xlink:href="#sprite5"/>
    <use height="7.75" transform="matrix(1.0, 0.0, 0.0, 1.0, -7.7, -9.1)" width="15.75" xlink:href="#sprite6"/>
    <use height="8.1" transform="matrix(1.0, 0.0, 0.0, 1.0, -7.7, -9.45)" width="10.5" xlink:href="#sprite7"/>
  </g>
  <defs>
    <g id="sprite0" transform="matrix(1.0, 0.0, 0.0, 1.0, 12.2, 13.35)">
      <use height="26.75" transform="matrix(1.0, 0.0, 0.0, 1.0, -12.2, -13.35)" width="24.4" xlink:href="#shape0"/>
    </g>
    <g id="shape0" transform="matrix(1.0, 0.0, 0.0, 1.0, 12.2, 13.35)">
      <path d="M9.2 -9.3 L11.65 -9.55 10.85 -7.85 Q11.7 -7.6 12.2 -5.65 L10.75 -5.9 Q10.5 -5.85 10.75 -5.15 L10.65 0.6 Q11.4 2.05 10.65 6.4 11.2 8.6 10.15 9.55 8.35 11.35 1.1 12.85 -5.55 14.1 -8.9 12.45 -12.1 10.9 -11.55 8.95 -13.15 4.15 -10.8 1.7 -9.05 -0.05 -7.85 -0.3 L-5.25 -1.35 -5.75 -3.7 -5.8 -5.2 -7.55 -4.9 -7.1 -6.1 Q-6.5 -7.3 -5.6 -7.65 L-8.0 -8.95 -6.65 -9.45 -4.25 -9.65 -5.0 -11.95 -2.1 -10.9 -1.15 -13.2 0.15 -11.05 1.0 -13.1 2.1 -11.3 3.35 -13.35 3.75 -11.3 5.45 -12.6 6.0 -11.15 7.75 -12.6 7.75 -10.7 9.95 -11.3 9.2 -9.3" fill="#1a171b" fill-rule="evenodd" stroke="none"/>
    </g>
    <g id="sprite1" transform="matrix(1.0, 0.0, 0.0, 1.0, 8.0, 2.6)">
      <use height="5.2" transform="matrix(1.0, 0.0, 0.0, 1.0, -8.0, -2.6)" width="16.05" xlink:href="#shape1"/>
    </g>
    <g id="shape1" transform="matrix(1.0, 0.0, 0.0, 1.0, 8.0, 2.6)">
      <path d="M0.55 -2.05 Q0.55 -1.6 0.95 -1.0 L2.5 -2.55 Q2.4 -2.0 3.25 -1.0 L4.6 -2.15 4.6 -1.0 6.1 -1.15 5.7 0.2 7.8 -0.05 6.8 1.25 8.05 1.7 Q7.4 1.9 7.35 2.6 L4.95 0.7 Q4.55 0.35 3.8 0.7 L2.05 0.1 0.2 0.45 Q-0.35 -0.05 -0.75 -0.1 -2.2 -0.3 -3.3 0.4 L-6.55 2.1 -8.0 2.2 -6.05 0.9 -7.5 0.1 -5.15 -0.05 Q-5.2 -1.1 -5.4 -1.65 -4.45 -1.25 -3.7 -0.1 -3.3 -1.55 -3.3 -2.6 L-2.05 -0.65 -1.15 -2.5 -0.25 -1.25 0.55 -2.05" fill="#ff8888" fill-rule="evenodd" stroke="none"/>
    </g>
    <g id="sprite2" transform="matrix(1.0, 0.0, 0.0, 1.0, 10.75, 6.45)">
      <use height="18.25" transform="matrix(1.0, 0.0, 0.0, 1.0, -10.75, -6.45)" width="21.0" xlink:href="#shape2"/>
    </g>
    <g id="shape2" transform="matrix(1.0, 0.0, 0.0, 1.0, 10.75, 6.45)">
      <path d="M2.65 -2.75 L4.15 -4.8 Q4.5 -5.0 5.2 -4.05 L5.8 -3.05 6.8 -5.4 Q7.85 -5.25 8.45 -3.8 L8.8 -6.05 9.95 -5.05 10.15 -4.55 10.15 -2.4 9.95 -0.05 9.95 0.25 10.05 0.55 Q10.35 1.05 10.25 2.85 L10.0 5.6 Q5.8 8.25 -1.2 9.45 -5.65 10.2 -8.55 9.05 L-10.2 8.05 -10.25 8.0 Q-11.5 3.8 -9.7 1.95 -8.05 0.35 -7.3 0.25 L-5.1 0.35 Q-2.8 0.6 -2.2 1.25 -1.25 2.25 -1.75 0.75 -3.25 -0.3 -6.45 -0.3 -6.0 -0.7 -5.0 -0.9 L-4.8 -0.95 -4.7 -0.9 -2.5 -0.75 Q-0.2 -0.5 0.45 0.1 1.35 1.1 0.9 -0.4 -0.55 -1.45 -3.45 -1.45 L-4.2 -4.0 -3.9 -6.45 -4.0 -4.05 -1.35 -5.65 -0.3 -3.0 Q0.8 -5.4 1.55 -5.15 1.95 -4.95 2.65 -2.75 M10.05 6.4 L10.05 7.2 9.8 8.2 Q8.5 9.35 1.5 11.05 -4.55 12.6 -8.1 10.95 -10.2 9.95 -10.2 8.9 -7.0 10.6 -2.2 10.05 3.0 9.5 10.05 6.4" fill="#c31200" fill-rule="evenodd" stroke="none"/>
    </g>
    <g id="sprite3" transform="matrix(1.0, 0.0, 0.0, 1.0, 9.3, 8.55)">
      <use height="17.1" transform="matrix(1.0, 0.0, 0.0, 1.0, -9.3, -8.55)" width="18.6" xlink:href="#shape3"/>
    </g>
    <g id="shape3" transform="matrix(1.0, 0.0, 0.0, 1.0, 9.3, 8.55)">
      <path d="M6.95 -8.3 L7.15 -3.65 7.5 1.85 Q7.5 2.85 8.05 3.3 4.15 5.3 -1.7 6.3 -5.5 6.9 -8.2 6.2 -3.75 6.3 -2.55 5.35 L-0.5 1.85 Q3.25 -0.6 3.2 -2.45 3.1 -3.9 0.95 -6.1 L-1.1 -5.2 -2.0 -7.95 -3.75 -7.65 -3.55 -7.8 -1.7 -8.4 -0.8 -6.15 Q0.3 -8.55 1.05 -8.3 1.45 -8.1 2.15 -5.9 L3.65 -7.95 Q4.0 -8.15 4.7 -7.2 L5.3 -6.2 6.3 -8.55 6.95 -8.3 M2.3 7.65 Q-2.7 8.9 -6.1 8.45 -8.9 8.15 -9.3 7.15 L-9.2 6.4 Q-6.45 7.35 -2.7 6.9 2.2 6.35 8.7 3.6 10.3 4.3 7.75 5.7 6.1 6.65 2.3 7.65" fill="#9b1200" fill-rule="evenodd" stroke="none"/>
    </g>
    <g id="sprite4" transform="matrix(1.0, 0.0, 0.0, 1.0, 10.2, 5.5)">
      <use height="11.0" transform="matrix(1.0, 0.0, 0.0, 1.0, -10.2, -5.5)" width="20.35" xlink:href="#shape4"/>
    </g>
    <g id="shape4" transform="matrix(1.0, 0.0, 0.0, 1.0, 10.2, 5.5)">
      <path d="M-6.85 0.3 Q-4.8 0.2 -3.5 1.2 -2.15 2.1 -3.3 2.75 -7.6 5.5 -8.4 5.5 -9.05 5.45 -9.75 4.35 -10.55 3.1 -10.0 2.25 -8.85 0.45 -6.85 0.3" fill="#ec311c" fill-rule="evenodd" stroke="none"/>
      <path d="M10.1 -5.5 L9.85 -0.8 Q10.45 0.6 9.9 4.55 9.6 -0.05 9.15 -0.65 L10.1 -5.5" fill="#ec311c" fill-rule="evenodd" stroke="none"/>
    </g>
    <g id="sprite5" transform="matrix(1.0, 0.0, 0.0, 1.0, 7.95, 7.2)">
      <use height="14.4" transform="matrix(1.0, 0.0, 0.0, 1.0, -7.95, -7.2)" width="15.85" xlink:href="#shape5"/>
    </g>
    <g id="shape5" transform="matrix(1.0, 0.0, 0.0, 1.0, 7.95, 7.2)">
      <path d="M7.5 -6.85 L6.15 -6.15 6.25 -6.8 7.1 -7.2 7.5 -6.85 M3.85 -5.85 L5.55 -6.45 5.8 -6.05 Q4.7 -5.55 3.6 -5.25 L3.85 -5.85 M3.25 -5.15 L0.3 -4.6 0.7 -5.15 2.95 -5.6 3.25 -5.15 M0.2 -4.6 Q-3.25 -4.4 -6.6 -5.7 L-6.7 -5.85 -6.7 -6.05 -6.6 -6.15 -6.4 -6.15 -6.35 -6.15 -6.4 -5.8 -6.0 -6.05 -2.9 -5.25 -2.7 -4.75 -2.5 -5.2 0.05 -5.1 0.2 -4.6 M0.55 2.9 Q1.1 5.9 0.2 7.1 L0.05 7.2 -0.15 7.15 -0.25 7.0 -0.2 6.8 Q0.6 5.7 0.05 3.0 -0.55 0.15 -4.2 -1.3 L-4.15 -1.3 -7.75 -2.25 -7.9 -2.35 -7.95 -2.55 -7.8 -2.7 -7.6 -2.75 -4.0 -1.8 -4.0 -1.75 Q-0.05 -0.15 0.55 2.9 M0.6 -2.35 L0.7 -2.35 Q5.35 -1.65 7.45 -4.55 L7.6 -4.65 7.8 -4.6 7.9 -4.45 7.85 -4.25 Q6.05 -1.7 2.55 -1.7 3.8 -1.05 4.3 -0.05 5.45 2.45 5.25 5.15 L5.15 5.3 5.0 5.35 4.8 5.25 4.75 5.1 Q4.95 2.55 3.85 0.15 3.15 -1.2 0.75 -1.8 L0.85 -1.75 0.1 -1.9 -2.25 -2.2 Q-2.4 -2.2 -2.45 -2.3 L-2.5 -2.45 -2.4 -2.65 -2.2 -2.7 0.25 -2.4 0.6 -2.35" fill="#560f0c" fill-rule="evenodd" stroke="none"/>
    </g>
    <g id="sprite6" transform="matrix(1.0, 0.0, 0.0, 1.0, 7.85, 3.9)">
      <use height="7.75" transform="matrix(1.0, 0.0, 0.0, 1.0, -7.85, -3.9)" width="15.75" xlink:href="#shape6"/>
    </g>
    <g id="shape6" transform="matrix(1.0, 0.0, 0.0, 1.0, 7.85, 3.9)">
      <path d="M7.65 -1.3 L6.75 -0.15 7.9 0.4 7.45 0.75 Q7.0 1.35 7.1 2.15 6.9 1.5 6.1 1.2 L5.35 0.95 5.4 2.7 Q5.1 2.15 4.25 1.75 L3.35 1.7 2.95 3.5 1.35 2.0 -0.1 3.85 Q-0.5 1.9 -1.25 1.9 L-3.05 3.6 -3.65 1.5 Q-4.25 1.25 -5.5 1.95 L-6.55 2.75 -6.1 0.65 -7.85 0.6 Q-6.3 -1.1 -4.3 -1.1 -3.8 -1.05 -3.65 -0.5 L-1.0 -1.0 Q-0.5 -0.65 -0.4 0.2 L1.5 -0.8 Q2.5 -0.9 3.5 -0.1 L4.9 -0.75 7.65 -1.3" fill="#ffdcdc" fill-rule="evenodd" stroke="none"/>
      <path d="M0.25 -2.4 Q-0.9 -2.0 -1.15 -2.55 -1.4 -1.25 -2.05 -1.15 L-3.65 -0.5 -7.15 0.45 Q-5.8 -0.25 -6.15 -0.5 L-7.4 -1.3 -5.3 -1.35 -5.8 -3.25 -3.75 -1.6 -3.5 -3.9 -2.25 -2.0 -1.3 -3.8 -0.4 -2.55 0.4 -3.65 0.7 -2.5 2.25 -3.8 3.1 -2.3 4.35 -3.55 3.5 -1.6 Q3.25 -1.05 2.0 -2.3 1.2 -1.4 0.6 -1.35 L0.25 -2.4" fill="#ffdcdc" fill-rule="evenodd" stroke="none"/>
    </g>
    <g id="sprite7" transform="matrix(1.0, 0.0, 0.0, 1.0, 5.25, 4.05)">
      <use height="8.1" transform="matrix(1.0, 0.0, 0.0, 1.0, -5.25, -4.05)" width="10.5" xlink:href="#shape7"/>
    </g>
    <g id="shape7" transform="matrix(1.0, 0.0, 0.0, 1.0, 5.25, 4.05)">
      <path d="M0.55 -0.95 L-0.4 -1.8 Q-0.5 -0.9 -0.9 -0.7 -1.25 -0.55 -1.95 -1.3 -1.55 -0.6 -1.95 -0.4 L-2.75 0.15 -0.95 0.2 Q-0.5 0.6 -0.15 1.45 L-0.45 3.8 Q-0.95 1.6 -1.25 1.45 L-3.8 2.8 Q-3.15 0.9 -3.5 0.85 L-5.25 1.05 -3.55 -0.3 -4.8 -1.1 -2.7 -1.15 -3.2 -3.05 -0.95 -1.45 -0.8 -4.05 0.35 -1.8 1.25 -3.8 Q1.0 -0.95 0.55 -0.95" fill="#fffffe" fill-rule="evenodd" stroke="none"/>
      <path d="M1.8 0.85 Q2.75 0.8 2.5 4.05 0.95 0.95 1.8 0.85" fill="#fffffe" fill-rule="evenodd" stroke="none"/>
      <path d="M4.1 0.85 Q5.35 0.45 5.25 3.1 3.55 1.05 4.1 0.85" fill="#fffffe" fill-rule="evenodd" stroke="none"/>
      <path d="M-0.45 3.6 L-0.7 1.8 Q-0.3 -0.15 0.7 0.4 1.25 0.8 -0.45 3.6" fill="#fffffe" fill-rule="evenodd" stroke="none"/>
    </g>
  </defs>
</svg>
